images/icon-map-outlined.svg

<svg class="w-6 h-6" width="24" height="24" viewBox="0 0 24 24" fill="none" xmlns="http://www.w3.org/2000/svg"><path d="M18.9912 9.65332C18.9055 7.92303 18.181 6.28061 16.9502 5.0498C15.7194 3.819 14.077 3.09452 12.3467 3.00879L12 3C10.1435 3 8.36256 3.73705 7.0498 5.0498C5.73705 6.36256 5 8.14348 5 10C5 12.1593 6.21679 14.4871 7.79785 16.5645C9.32566 18.5717 11.0795 20.1963 12 20.9951C12.9205 20.1963 14.6743 18.5717 16.2021 16.5645C17.7832 14.4871 19 12.1593 19 10L18.9912 9.65332ZM21 10C21 12.8337 19.4474 15.603 17.7939 17.7754C16.327 19.7028 14.6832 21.2859 13.6553 22.2041L13.2549 22.5557C13.2379 22.5704 13.2201 22.5851 13.2021 22.5986C12.899 22.8266 12.538 22.9626 12.1621 22.9932L12 23C11.6207 23 11.2504 22.8919 10.9316 22.6904L10.7979 22.5986L10.7451 22.5557C9.78983 21.7308 7.88248 19.978 6.20605 17.7754C4.55262 15.603 3 12.8337 3 10C3 7.61305 3.94791 5.32357 5.63574 3.63574C7.32357 1.94791 9.61305 1 12 1C14.3869 1 16.6764 1.94791 18.3643 3.63574C20.0521 5.32357 21 7.61305 21 10Z" fill="#c39900" style="fill-opacity:1;"/><path d="M14 10C14 8.89543 13.1046 8 12 8C10.8954 8 10 8.89543 10 10C10 11.1046 10.8954 12 12 12C13.1046 12 14 11.1046 14 10ZM16 10C16 12.2091 14.2091 14 12 14C9.79086 14 8 12.2091 8 10C8 7.79086 9.79086 6 12 6C14.2091 6 16 7.79086 16 10Z" fill="#c39900" style="fill-opacity:1;"/></svg>

<svg xmlns="http://www.w3.org/2000/svg" width="24" height="24" fill="none" class="w-6 h-6" viewBox="0 0 24 24"><path fill="#c39900" d="M18.991 9.653a7 7 0 0 0-6.644-6.644L12 3a7 7 0 0 0-7 7c0 2.16 1.217 4.487 2.798 6.564 1.528 2.008 3.281 3.632 4.202 4.431.92-.799 2.674-2.423 4.202-4.43C17.783 14.487 19 12.159 19 10zM21 10c0 2.834-1.553 5.603-3.206 7.775-1.467 1.928-3.11 3.51-4.139 4.43l-.4.35-.053.044a2 2 0 0 1-1.04.394L12 23a2 2 0 0 1-1.068-.31l-.134-.091-.053-.043c-.955-.825-2.863-2.578-4.539-4.78C4.553 15.602 3 12.833 3 10a9 9 0 1 1 18 0"/><path fill="#c39900" d="M14 10a2 2 0 1 0-4 0 2 2 0 0 0 4 0m2 0a4 4 0 1 1-8 0 4 4 0 0 1 8 0"/></svg>
